src/assets/img/instagram.svg

<svg height="26" viewBox="0 0 26 26" width="26" xmlns="http://www.w3.org/2000/svg"><g fill="#303c42" fill-rule="evenodd"><path d="m24 19.5c0 2.481-2.019 4.5-4.5 4.5h-13c-2.481 0-4.5-2.019-4.5-4.5v-13c0-2.481 2.019-4.5 4.5-4.5h13c2.481 0 4.5 2.019 4.5 4.5zm-4.5-19.5h-13c-3.584 0-6.5 2.916-6.5 6.5v13c0 3.584 2.916 6.5 6.5 6.5h13c3.584 0 6.5-2.916 6.5-6.5v-13c0-3.584-2.916-6.5-6.5-6.5z"/><path d="m12.978 18.022c-2.769 0-5.021-2.253-5.021-5.022s2.252-5.022 5.021-5.022 5.022 2.253 5.022 5.022-2.253 5.022-5.022 5.022m0-12.044c-3.872 0-7.021 3.15-7.021 7.022s3.149 7.022 7.021 7.022 7.022-3.15 7.022-7.022-3.15-7.022-7.022-7.022m7.022-2.978c-.551 0-1 .449-1 1s.449 1 1 1 1-.449 1-1-.449-1-1-1"/></g></svg>

<svg xmlns="http://www.w3.org/2000/svg" width="26" height="26" viewBox="0 0 26 26">
  <g fill="#303C42" fill-rule="evenodd">
    <path d="M24,19.5 C24,21.981 21.981,24 19.5,24 L6.5,24 C4.019,24 2,21.981 2,19.5 L2,6.5 C2,4.019 4.019,2 6.5,2 L19.5,2 C21.981,2 24,4.019 24,6.5 L24,19.5 Z M19.5,0 L6.5,0 C2.916,0 0,2.916 0,6.5 L0,19.5 C0,23.084 2.916,26 6.5,26 L19.5,26 C23.084,26 26,23.084 26,19.5 L26,6.5 C26,2.916 23.084,0 19.5,0 Z"/>
    <path d="M12.978 18.022C10.209 18.022 7.957 15.769 7.957 13 7.957 10.231 10.209 7.978 12.978 7.978 15.747 7.978 18 10.231 18 13 18 15.769 15.747 18.022 12.978 18.022M12.978 5.978C9.106 5.978 5.957 9.128 5.957 13 5.957 16.872 9.106 20.022 12.978 20.022 16.85 20.022 20 16.872 20 13 20 9.128 16.85 5.978 12.978 5.978M20 3C19.449 3 19 3.449 19 4 19 4.551 19.449 5 20 5 20.551 5 21 4.551 21 4 21 3.449 20.551 3 20 3"/>
  </g>
</svg>
